priv/static/svgs/icons_new/travel-no-suitcase.svg

<svg width="32" height="32" viewBox="0 0 32 32" fill="none" xmlns="http://www.w3.org/2000/svg">
<path d="M11.3571 27C11.3571 27.2761 11.581 27.5 11.8571 27.5C12.1333 27.5 12.3571 27.2761 12.3571 27H11.3571ZM12.3571 25.5574C12.3571 25.2812 12.1333 25.0574 11.8571 25.0574C11.581 25.0574 11.3571 25.2812 11.3571 25.5574H12.3571ZM20.6429 27C20.6429 27.2761 20.8667 27.5 21.1429 27.5C21.419 27.5 21.6429 27.2761 21.6429 27H20.6429ZM21.6429 25.5574C21.6429 25.2812 21.419 25.0574 21.1429 25.0574C20.8667 25.0574 20.6429 25.2812 20.6429 25.5574H21.6429ZM9.5 22.7997C9.5 22.5236 9.27614 22.2997 9 22.2997C8.72386 22.2997 8.5 22.5236 8.5 22.7997H9.5ZM12 4.5C11.7239 4.5 11.5 4.72386 11.5 5C11.5 5.27614 11.7239 5.5 12 5.5V4.5ZM21 5.5C21.2761 5.5 21.5 5.27614 21.5 5C21.5 4.72386 21.2761 4.5 21 4.5V5.5ZM8.5 19C8.5 19.2761 8.72386 19.5 9 19.5C9.27614 19.5 9.5 19.2761 9.5 19H8.5ZM12.3572 17.2029C12.3572 17.4791 12.581 17.7029 12.8572 17.7029C13.1333 17.7029 13.3572 17.4791 13.3572 17.2029H12.3572ZM13.3572 10.904C13.3572 10.6278 13.1333 10.404 12.8572 10.404C12.581 10.404 12.3572 10.6278 12.3572 10.904H13.3572ZM12.3572 22.4522C12.3572 22.7283 12.581 22.9522 12.8572 22.9522C13.1333 22.9522 13.3572 22.7283 13.3572 22.4522H12.3572ZM13.3572 21.4801C13.3572 21.2039 13.1333 20.9801 12.8572 20.9801C12.581 20.9801 12.3572 21.2039 12.3572 21.4801H13.3572ZM16 15.5C16 15.7761 16.2239 16 16.5 16C16.7761 16 17 15.7761 17 15.5H16ZM17 10.904C17 10.6278 16.7761 10.404 16.5 10.404C16.2239 10.404 16 10.6278 16 10.904H17ZM16 22.4522C16 22.7283 16.2239 22.9522 16.5 22.9522C16.7761 22.9522 17 22.7283 17 22.4522H16ZM17 19.7209C17 19.4447 16.7761 19.2209 16.5 19.2209C16.2239 19.2209 16 19.4447 16 19.7209H17ZM19.6428 13.5C19.6428 13.7761 19.8667 14 20.1428 14C20.419 14 20.6428 13.7761 20.6428 13.5H19.6428ZM20.6428 10.9039C20.6428 10.6278 20.419 10.4039 20.1428 10.4039C19.8667 10.4039 19.6428 10.6278 19.6428 10.9039H20.6428ZM19.6428 22.4521C19.6428 22.7283 19.8667 22.9521 20.1428 22.9521C20.419 22.9521 20.6428 22.7283 20.6428 22.4521H19.6428ZM20.6428 18C20.6428 17.7239 20.419 17.5 20.1428 17.5C19.8667 17.5 19.6428 17.7239 19.6428 18H20.6428ZM23.5 12C23.5 12.2761 23.7239 12.5 24 12.5C24.2761 12.5 24.5 12.2761 24.5 12H23.5ZM24.5 16.3401C24.5 16.0639 24.2761 15.8401 24 15.8401C23.7239 15.8401 23.5 16.0639 23.5 16.3401H24.5ZM6.28079 20.0506C6.0326 20.1717 5.92955 20.471 6.05062 20.7192C6.17168 20.9674 6.47102 21.0705 6.71921 20.9494L6.28079 20.0506ZM27.2192 10.9494C27.4674 10.8283 27.5705 10.529 27.4494 10.2808C27.3283 10.0326 27.029 9.92955 26.7808 10.0506L27.2192 10.9494ZM12.3571 27V25.5574H11.3571V27H12.3571ZM21.6429 27V25.5574H20.6429V27H21.6429ZM20.2143 7.88525V5.50706H19.2143V7.88525H20.2143ZM12.7857 5.50706V7.88525H13.7857V5.50706H12.7857ZM11.4882 8.45375H21.5118V7.45375H11.4882V8.45375ZM21.5118 8.45375C22.6142 8.45375 23.5 9.33804 23.5 10.4193H24.5C24.5 8.77716 23.1578 7.45375 21.5118 7.45375V8.45375ZM23.5 22.7997C23.5 23.8809 22.6142 24.7652 21.5118 24.7652V25.7652C23.1578 25.7652 24.5 24.4418 24.5 22.7997H23.5ZM21.5118 24.7652H11.4882V25.7652H21.5118V24.7652ZM11.4882 24.7652C10.3858 24.7652 9.5 23.8809 9.5 22.7997H8.5C8.5 24.4418 9.84216 25.7652 11.4882 25.7652V24.7652ZM9.5 10.4193C9.5 9.33804 10.3858 8.45375 11.4882 8.45375V7.45375C9.84216 7.45375 8.5 8.77716 8.5 10.4193H9.5ZM12 5.5H21V4.5H12V5.5ZM9.5 19V10.4193H8.5V19H9.5ZM13.3572 17.2029V10.904H12.3572V17.2029H13.3572ZM13.3572 22.4522V21.4801H12.3572V22.4522H13.3572ZM17 15.5V10.904H16V15.5H17ZM17 22.4522V19.7209H16V22.4522H17ZM20.6428 13.5V10.9039H19.6428V13.5H20.6428ZM20.6428 22.4521V18H19.6428V22.4521H20.6428ZM23.5 10.4193V12H24.5V10.4193H23.5ZM23.5 16.3401V22.7997H24.5V16.3401H23.5ZM6.71921 20.9494L27.2192 10.9494L26.7808 10.0506L6.28079 20.0506L6.71921 20.9494Z" fill="black"/>
</svg>

<svg width="32" height="32" viewBox="0 0 32 32" fill="none" xmlns="http://www.w3.org/2000/svg">
  <symbol id="item" viewBox="0 0 32 32"  fill="none">
    <path d="M11.357 27a.5.5 0 0 0 1 0h-1Zm1-1.443a.5.5 0 1 0-1 0h1ZM20.643 27a.5.5 0 1 0 1 0h-1Zm1-1.443a.5.5 0 1 0-1 0h1ZM9.5 22.8a.5.5 0 0 0-1 0h1ZM12 4.5a.5.5 0 0 0 0 1v-1Zm9 1a.5.5 0 0 0 0-1v1ZM8.5 19a.5.5 0 0 0 1 0h-1Zm3.857-1.797a.5.5 0 1 0 1 0h-1Zm1-6.299a.5.5 0 1 0-1 0h1Zm-1 11.548a.5.5 0 1 0 1 0h-1Zm1-.972a.5.5 0 1 0-1 0h1ZM16 15.5a.5.5 0 0 0 1 0h-1Zm1-4.596a.5.5 0 1 0-1 0h1Zm-1 11.548a.5.5 0 0 0 1 0h-1Zm1-2.731a.5.5 0 1 0-1 0h1Zm2.643-6.221a.5.5 0 0 0 1 0h-1Zm1-2.596a.5.5 0 1 0-1 0h1Zm-1 11.548a.5.5 0 1 0 1 0h-1Zm1-4.452a.5.5 0 1 0-1 0h1Zm2.857-6a.5.5 0 0 0 1 0h-1Zm1 4.34a.5.5 0 1 0-1 0h1ZM6.28 20.05a.5.5 0 0 0 .44.9l-.44-.9Zm20.94-9.1a.5.5 0 1 0-.44-.9l.44.9ZM12.356 27v-1.443h-1V27h1Zm9.286 0v-1.443h-1V27h1ZM20.214 7.885V5.507h-1v2.378h1Zm-7.428-2.378v2.378h1V5.507h-1Zm-1.298 2.947h10.024v-1H11.488v1Zm10.024 0c1.102 0 1.988.884 1.988 1.965h1c0-1.642-1.342-2.965-2.988-2.965v1ZM23.5 22.8a1.977 1.977 0 0 1-1.988 1.965v1c1.646 0 2.988-1.323 2.988-2.965h-1Zm-1.988 1.965H11.488v1h10.024v-1Zm-10.024 0A1.977 1.977 0 0 1 9.5 22.8h-1c0 1.642 1.342 2.965 2.988 2.965v-1ZM9.5 10.42c0-1.081.886-1.965 1.988-1.965v-1c-1.646 0-2.988 1.323-2.988 2.965h1ZM12 5.5h9v-1h-9v1ZM9.5 19v-8.58h-1V19h1Zm3.857-1.797v-6.299h-1v6.299h1Zm0 5.25v-.973h-1v.972h1ZM17 15.5v-4.596h-1V15.5h1Zm0 6.952v-2.731h-1v2.731h1Zm3.643-8.952v-2.596h-1V13.5h1Zm0 8.952V18h-1v4.452h1ZM23.5 10.42V12h1v-1.58h-1Zm0 5.921v6.46h1v-6.46h-1ZM6.72 20.95l20.5-10-.44-.9-20.5 10 .44.9Z" fill="currentColor"/>
  </symbol>
</svg>
